X: 12741
T: Father Kelly's Farewell 
R: jig
M: 6/8
K: Gmajor
|:DGA|BAB cBA|BGE DGB|dcB cBA|BGE DGA|
~B3 cBA|BGE DGB|d zB cAF|1 G2E:|2 GBd gdB||
|:GED DDD|GBd ~c3|Aag f/g/af|def gdB|
G2B GBd|GBd cz A|B/c/dB cAF|1 GBd gdB:|2 G3||

